!!!COM: Bach, Johann Sebastian
!!!OTL: 157. Wo Gott zum Haus nicht gibt
!!!ONM: No. 157
!!!OCL: Erk
!!!SCA: BWV 438
!!!YOE: Riemenschneider, Albert
!!!OPR: 371 Harmonized Chorales and 69 Chorale Melodies with Figured Bass
!!!OPT: Bach Chorale Harmonizations
**harm	**root	**kern	**kern	**kern	**kern
!	!	!bass	!tenor	!alto	!sprno
*Iorgan	*Iorgan	*Iorgan	*Iorgan	*Iorgan	*Iorgan
*k[b-e-a-d-]	*k[b-e-a-d-]	*k[b-e-a-d-]	*k[b-e-a-d-]	*k[b-e-a-d-]	*k[b-e-a-d-]
*A-:	*A-:	*A-:	*A-:	*A-:	*A-:
*met(c)	*met(c)	*met(c)	*met(c)	*met(c)	*met(c)
*M4/4	*M4/4	*M4/4	*M4/4	*M4/4	*M4/4
*MM60	*MM60	*MM60	*MM60	*MM60	*MM60
I	4FF	8A-	8c	4e-	4a-
.	.	8B-	8d-	.	.
=1	=1	=1	=1	=1	=1
Ib	4FF	8c	8e-	8a-	4ee-
.	.	8d-	8f	8b-	.
iiib	8AA	4e-	4g	8cc	8ee-
V7	8CC	.	.	[8b-	8dd-
I	4FF	4A-	4e-	8b-]	4cc
.	.	.	.	[8a-	.
V	4CC	4E-	4e-	8a-]	4b-
.	.	.	.	8g	.
=2	=2	=2	=2	=2	=2
I	4FF	4A-	4e-	8a-	4cc
.	.	.	.	8g	.
II	4GG	4B-	4B-	4f	4dd
V;	4CC;	4E-;	4B-;	4g;	4ee-;
Vb	4CC	4G	4e-	[4b-	4ee-
=3	=3	=3	=3	=3	=3
I	4FF	4A-	[4e-	8b-]	4cc
.	.	.	.	8a-	.
Vb	8CC	8G	8e-]	8b-	4ee-
iiib	8AA	8E-	8g	[8cc	.
IV7b	8BB-	8F	8a-	8cc]	4dd-
ii	8GG	8B-	8f	16b-	.
.	.	.	.	16a-	.
Vb	4CC	8G	4e-	[4b-	4ee-
.	.	8E-	.	.	.
=4	=4	=4	=4	=4	=4
I	4FF	4A-	4e-	8b-]	4cc
.	.	.	.	4a-	.
V	4CC	4E-	8e-	.	4b-
.	.	.	8d-	8g	.
I;	4FF;	4AA-;	4c;	4e-;	4a-;
I	4FF	4A-	4c	4a-	4ee-
=5	=5	=5	=5	=5	=5
!!linebreak: 2
IV	4BB-	8D-	4d-	4a-	4ff
.	.	8E-	.	.	.
IVb	4BB-	8F	8A-	4a-	4ff
.	.	8G	8B-	.	.
I	4FF	8A-	4c	4.e-	4cc
.	.	8B-	.	.	.
Ib	8FF	8c	8a-	.	4ee-
viioD7/ii	8FF#	8A	8g-	[8cc	.
=6	=6	=6	=6	=6	=6
ii	4GG	8B-	4f	8cc]	4dd-
.	.	8c	.	16b-	.
.	.	.	.	16a	.
iib	4GG	8d-	4f	[4b-	4dd-
.	.	8e-	.	.	.
V/ii;	4DD;	4f;	4f;	8b-]	4cc;
.	.	.	.	8a;	.
vi	4DD	4F	4f	4cc	4aa-
=7	=7	=7	=7	=7	=7
iii	4AA	4c	4e-	8cc	4gg
.	.	.	.	8b-	.
IV	4BB-	4d-	8f	8a-	4ff
.	.	.	8g	8b-	.
I	4FF	8A-	4a-	8cc	4.ee-
.	.	8G	.	8b-	.
vi7	4DD	4F	4c	4a-	.
.	.	.	.	.	8ff
=8	=8	=8	=8	=8	=8
ii7	4GG	4B-	4.d-	4.a-	8dd-
.	.	.	.	.	8cc
V	4CC	4E-	.	.	4b-
.	.	.	16e-	8g	.
.	.	.	16d-	.	.
I;	4FF;	4A-;	4c;	4e-;	4a-;
==	==	==	==	==	==
*-	*-	*-	*-	*-	*-
!!!CDT: 1685/3//-1750/7/28
!!!OCY: Deutschland
!!!AGN: chorale
!!!AST: Baroque
!!!AIN: vox
!!!YOY: 1941
!!!PPP: New York; London
!!!PPR: G. Schirmer
!!!ENC: David Huron
!!!EED: David Huron
!!!YEN: United States of America
!!!YER: 1992
!!!YEC: Copyright 1992 David Huron
!!!YEM: Rights to all derivative electronic formats reserved.
!!!YER: March 20, 1996
!!!AMT: simple quadruple
!!!EEV: 1.1
!!chor2scor: -l 2 -s 0.6 -o %b.pmx
